X: 04095
T: WALKER'S JIG
C: Bob McQuillen 18 July 79
B: Bob's Note Book 04 #95
%R: jig
Z: 2020 John Chambers <jc:trillian.mit.edu>
M: 6/8
L: 1/8
K: D
|: AFA BAF | DFA dcd | AFA BAF | DGF EFG \
|  AFA BAF | DFA dcd | Bcd ede | fgf e2d :|
|: ded cBA | def gfe | ded cde | fga f2d \
|  ded cBA | def g2e | fag fed | edc d3 :|
%%begintext align
%% There's a family in my town of Dublin, H.H.,
%% and Walker is their name, and there's about
%% 432 of them if you count cousins and in laws,
%% and I guess I like most all of them, especially
%% Mike Walker. So here's a tune for you, Mike,
%% with best wishes always to you and yours.
%%endtext

%%sep 1 1 500

%%sep 1 1 500

